images/products-tubs-icon-2.svg

<svg width="20" height="21" viewBox="0 0 20 21" fill="none" xmlns="http://www.w3.org/2000/svg">
<path d="M12.7169 19.3141C12.6669 19.3141 12.6086 19.3058 12.5586 19.2891C10.8836 18.8141 9.12528 18.8141 7.45028 19.2891C7.14195 19.3725 6.81695 19.1975 6.73361 18.8891C6.64198 18.5808 6.82528 18.2558 7.13361 18.1725C9.01695 17.6391 11.0003 17.6391 12.8836 18.1725C13.1919 18.2641 13.3753 18.5808 13.2836 18.8891C13.2003 19.1475 12.9669 19.3141 12.7169 19.3141Z" fill="black"/>
<path d="M16.0086 6.28072C15.1419 4.53072 13.4669 3.23906 11.5252 2.81406C9.49191 2.36406 7.40858 2.84739 5.81693 4.13072C4.21693 5.40572 3.30859 7.31405 3.30859 9.35573C3.30859 11.5141 4.60026 13.7724 6.55026 15.0807V15.7724C6.54193 16.0057 6.53359 16.3641 6.81691 16.6557C7.10858 16.9557 7.54191 16.9891 7.88358 16.9891H12.1586C12.6086 16.9891 12.9502 16.8641 13.1836 16.6307C13.5002 16.3057 13.4919 15.8891 13.4836 15.6641V15.0807C16.0669 13.3391 17.6919 9.66406 16.0086 6.28072ZM11.4336 10.6641L10.5419 12.2141C10.4252 12.4141 10.2169 12.5307 10.0002 12.5307C9.89191 12.5307 9.78358 12.5057 9.69191 12.4474C9.39191 12.2724 9.29191 11.8891 9.45858 11.5974L10.1669 10.3641H9.46691C9.05025 10.3641 8.70858 10.1807 8.52525 9.8724C8.34191 9.55573 8.35858 9.1724 8.56691 8.80573L9.45858 7.25572C9.63358 6.95572 10.0169 6.85572 10.3086 7.02239C10.6086 7.19739 10.7086 7.58072 10.5419 7.8724L9.83358 9.10573H10.5336C10.9502 9.10573 11.2919 9.28906 11.4752 9.59739C11.6586 9.91406 11.6419 10.3057 11.4336 10.6641Z" fill="black"/>
</svg>

<svg width="20" height="21" fill="none" xmlns="http://www.w3.org/2000/svg"><path d="M12.717 19.314a.522.522 0 01-.158-.025 9.334 9.334 0 00-5.109 0 .582.582 0 01-.716-.4.575.575 0 01.4-.716 10.53 10.53 0 015.75 0 .579.579 0 01.4.716.603.603 0 01-.567.425zM16.009 6.28c-.867-1.75-2.542-3.04-4.484-3.466-2.033-.45-4.116.033-5.708 1.317a6.644 6.644 0 00-2.508 5.225c0 2.158 1.291 4.416 3.241 5.725v.691c-.008.234-.016.592.267.884.292.3.725.333 1.067.333h4.275c.45 0 .791-.125 1.025-.358.316-.325.308-.742.3-.967v-.583c2.583-1.742 4.208-5.417 2.525-8.8zm-4.575 4.384l-.892 1.55a.63.63 0 01-.542.317.629.629 0 01-.542-.933l.709-1.234h-.7c-.417 0-.758-.183-.942-.492-.183-.316-.166-.7.042-1.066l.892-1.55a.63.63 0 01.85-.234c.3.175.4.559.233.85l-.708 1.234h.7c.416 0 .758.183.941.491.184.317.167.709-.041 1.067z" fill="#000"/></svg>
